src/files/images/common/icn_menu_close.svg

<svg xmlns="http://www.w3.org/2000/svg" width="30" height="30" viewBox="0 0 30 30"><path d="M17.74 15l11.52 11.52c.76.76.76 2 0 2.76-.76.76-2 .76-2.76 0L14.98 17.76 3.59 29.14c-.75.76-1.98.76-2.73 0a1.92 1.92 0 0 1 0-2.73l11.38-11.39L.72 3.5c-.76-.76-.76-2 0-2.76.76-.76 2-.76 2.76 0L15 12.26 26.41.86a1.92 1.92 0 0 1 2.73 0c.76.75.76 1.98 0 2.73L17.74 15z" fill="#FFF"/></svg>

<?xml version="1.0" encoding="utf-8"?>
<svg xmlns="http://www.w3.org/2000/svg"
	xmlns:xlink="http://www.w3.org/1999/xlink"
	width="30px" height="30px" viewBox="0 0 30 30">
<path fillRule="evenodd" d="M 17.74 15C 17.74 15 29.26 26.52 29.26 26.52 30.02 27.28 30.02 28.52 29.26 29.28 28.5 30.04 27.26 30.04 26.5 29.28 26.5 29.28 14.98 17.76 14.98 17.76 14.98 17.76 3.59 29.14 3.59 29.14 2.84 29.9 1.61 29.9 0.86 29.14 0.1 28.39 0.1 27.16 0.86 26.41 0.86 26.41 12.24 15.02 12.24 15.02 12.24 15.02 0.72 3.5 0.72 3.5-0.04 2.74-0.04 1.5 0.72 0.74 1.48-0.02 2.72-0.02 3.48 0.74 3.48 0.74 15 12.26 15 12.26 15 12.26 26.41 0.86 26.41 0.86 27.16 0.1 28.39 0.1 29.14 0.86 29.9 1.61 29.9 2.84 29.14 3.59 29.14 3.59 17.74 15 17.74 15Z" fill="rgb(255,255,255)"/></svg>
